assets/logoFce.svg

<svg aria-hidden="true" focusable="false" data-prefix="fab" data-icon="facebook" class="svg-inline--fa fa-facebook fa-w-16" role="img" xmlns="http://www.w3.org/2000/svg" viewBox="0 0 512 512"><path fill="currentColor" d="M504 256C504 119 393 8 256 8S8 119 8 256c0 123.78 90.69 226.38 209.25 245V327.69h-63V256h63v-54.64c0-62.15 37-96.48 93.67-96.48 27.14 0 55.52 4.84 55.52 4.84v61h-31.28c-30.8 0-40.41 19.12-40.41 38.73V256h68.78l-11 71.69h-57.78V501C413.31 482.38 504 379.78 504 256z"></path></svg>

<svg width="512" height="512" viewBox="0 0 512 512" fill="none" xmlns="http://www.w3.org/2000/svg">
<path d="M504 256C504 119 393 8 256 8C119 8 8 119 8 256C8 379.78 98.69 482.38 217.25 501V327.69H154.25V256H217.25V201.36C217.25 139.21 254.25 104.88 310.92 104.88C338.06 104.88 366.44 109.72 366.44 109.72V170.72H335.16C304.36 170.72 294.75 189.84 294.75 209.45V256H363.53L352.53 327.69H294.75V501C413.31 482.38 504 379.78 504 256Z" fill="white"/>
</svg>
